src/baseIcons/icon-history.svg

<svg xmlns="http://www.w3.org/2000/svg" xmlns:xlink="http://www.w3.org/1999/xlink" viewBox="0 0 24 24"><defs><path id="a" d="M19 19c.552 0 1 .448 1 1s-.448 1-1 1H5c-.552 0-1-.448-1-1s.448-1 1-1h14zM2 19v2H0v-2h2zm21-5c.552 0 1 .448 1 1s-.448 1-1 1H5c-.552 0-1-.448-1-1s.448-1 1-1h18zM2 14v2H0v-2h2zm17-5c.552 0 1 .448 1 1s-.448 1-1 1H5c-.552 0-1-.448-1-1s.448-1 1-1h14zM2 9v2H0V9h2zm21-5c.552 0 1 .448 1 1s-.448 1-1 1H5c-.552 0-1-.448-1-1s.448-1 1-1h18zM2 4v2H0V4h2z"/></defs><use fill="#5F686D" fill-rule="evenodd" xlink:href="#a"/></svg>

<?xml version="1.0" encoding="UTF-8"?>
<svg  viewBox="0 0 24 24" version="1.1" xmlns="http://www.w3.org/2000/svg" xmlns:xlink="http://www.w3.org/1999/xlink">
    <title>Icons/Basic icons/history</title>
    <g  id="Icons/Basic-icons/history" stroke="none" stroke-width="1" fill="none" fill-rule="evenodd">
        <path d="M19,19 C19.552,19 20,19.448 20,20 C20,20.552 19.552,21 19,21 L5,21 C4.448,21 4,20.552 4,20 C4,19.448 4.448,19 5,19 L19,19 Z M2,19 L2,21 L0,21 L0,19 L2,19 Z M23,14 C23.552,14 24,14.448 24,15 C24,15.552 23.552,16 23,16 L5,16 C4.448,16 4,15.552 4,15 C4,14.448 4.448,14 5,14 L23,14 Z M2,14 L2,16 L0,16 L0,14 L2,14 Z M19,9 C19.552,9 20,9.448 20,10 C20,10.552 19.552,11 19,11 L5,11 C4.448,11 4,10.552 4,10 C4,9.448 4.448,9 5,9 L19,9 Z M2,9 L2,11 L0,11 L0,9 L2,9 Z M23,4 C23.552,4 24,4.448 24,5 C24,5.552 23.552,6 23,6 L5,6 C4.448,6 4,5.552 4,5 C4,4.448 4.448,4 5,4 L23,4 Z M2,4 L2,6 L0,6 L0,4 L2,4 Z"  id="Combined-Shape" fill="#292929"></path>
    </g>
</svg>
